src/files/icons/svg/key.svg

<?xml version="1.0" standalone="no"?>
<!-- Generator: Adobe Fireworks 10, Export SVG Extension by Aaron Beall (http://fireworks.abeall.com) . Version: 0.6.1  -->
<!DOCTYPE svg PUBLIC "-//W3C//DTD SVG 1.1//EN" "http://www.w3.org/Graphics/SVG/1.1/DTD/svg11.dtd">
<svg id="Icons.fw-key" viewBox="0 0 16 16" style="background-color:#ffffff00" version="1.1"
	xmlns="http://www.w3.org/2000/svg" xmlns:xlink="http://www.w3.org/1999/xlink" xml:space="preserve"
	x="0px" y="0px" width="16px" height="16px"
>
	<path id="base" d="M 15.6582 4.9102 L 14.0781 3.3301 C 13.6914 2.9429 13.0566 2.3091 12.6689 1.9209 L 11.0889 0.3408 C 10.7021 -0.0459 10.0117 -0.1147 9.5566 0.189 L 5.2368 3.0688 C 4.7813 3.373 4.6089 4.0229 4.854 4.5132 L 5.9551 6.7158 C 5.9893 6.7832 6.0278 6.855 6.0698 6.9292 L 0.499 12.5 L -0.001 16 L 2.999 16 L 2.999 15 L 4.999 15 L 4.999 13 L 6.999 13 L 6.999 11 L 8.999 11 L 8.999 9.8887 C 9.0996 9.9473 9.1953 10.001 9.2832 10.0449 L 11.4863 11.1465 C 11.9766 11.3906 12.626 11.2178 12.9297 10.7637 L 15.8105 6.4438 C 16.1143 5.9878 16.0459 5.2979 15.6582 4.9111 L 15.6582 4.9102 ZM 2.354 13.3535 L 1.647 12.6465 L 6.5151 7.7788 L 7.2222 8.4858 L 2.354 13.3535 ZM 14.3281 6.6211 L 13.6211 7.3281 C 13.4268 7.522 13.1074 7.522 12.9141 7.3281 L 8.6709 3.085 C 8.4771 2.8911 8.4771 2.5718 8.6709 2.3779 L 9.3779 1.6709 C 9.5723 1.4771 9.8906 1.4771 10.085 1.6709 L 14.3281 5.9141 C 14.5215 6.1079 14.5215 6.4272 14.3281 6.6211 Z" fill="#ffffff"/>
</svg>

<?xml version="1.0" encoding="utf-8"?>
<!-- Generated by IcoMoon.io -->
<!DOCTYPE svg PUBLIC "-//W3C//DTD SVG 1.1//EN" "http://www.w3.org/Graphics/SVG/1.1/DTD/svg11.dtd">
<svg version="1.1" xmlns="http://www.w3.org/2000/svg" xmlns:xlink="http://www.w3.org/1999/xlink" width="16" height="16" viewBox="0 0 16 16">
<g id="icomoon-ignore">
	<line stroke-width="1" x1="" y1="" x2="" y2="" stroke="#449FDB" opacity=""></line>
</g>
	<path d="M15.658 4.91l-1.58-1.58c-0.387-0.387-1.021-1.021-1.409-1.409l-1.58-1.58c-0.387-0.387-1.077-0.456-1.533-0.152l-4.319 2.88c-0.456 0.304-0.628 0.954-0.383 1.444l1.101 2.203c0.034 0.067 0.073 0.139 0.115 0.213l-5.571 5.571-0.5 3.5h3v-1h2v-2h2v-2h2v-1.112c0.1 0.060 0.196 0.113 0.284 0.157l2.203 1.101c0.49 0.245 1.14 0.072 1.444-0.383l2.88-4.319c0.304-0.456 0.236-1.146-0.152-1.533zM2.354 13.354l-0.707-0.707 4.868-4.868 0.707 0.707-4.868 4.868zM14.328 6.621l-0.707 0.707c-0.194 0.194-0.513 0.194-0.707 0l-4.243-4.243c-0.194-0.194-0.194-0.513 0-0.707l0.707-0.707c0.194-0.194 0.513-0.194 0.707 0l4.243 4.243c0.194 0.194 0.194 0.513 0 0.707z" fill="#ffffff"></path>
</svg>
